public/assets/images/tepi.svg

<svg width="80" height="80" viewBox="0 0 80 80" fill="none" xmlns="http://www.w3.org/2000/svg">
<path opacity="0.5" d="M40 80C21.1438 80 11.7157 80 5.85786 74.1421C0 68.2843 0 58.8562 0 40C0 21.1438 0 11.7157 5.85786 5.85786C11.7157 0 21.1438 0 40 0C58.8562 0 68.2843 0 74.1421 5.85786C80 11.7157 80 21.1438 80 40C80 58.8562 80 68.2843 74.1421 74.1421C68.2843 80 58.8562 80 40 80Z" fill="url(#paint0_radial_169_2108)"/>
<path d="M28.792 21H29.2081C32.802 20.9999 35.7988 20.9998 38.1779 21.3197C40.6891 21.6573 42.9563 22.4 44.7782 24.2218C46.6001 26.0437 47.3428 28.3109 47.6804 30.8221C48.0002 33.2012 48.0001 36.1982 48 39.792L48 40C48 41.6569 46.6569 43 45 43C43.3432 43 42 41.6569 42 40C42 36.144 41.9936 33.5537 41.7339 31.6216C41.4857 29.7757 41.0568 28.9857 40.5355 28.4645C40.0143 27.9432 39.2243 27.5143 37.3784 27.2662C35.4463 27.0064 32.8561 27 29 27C25.144 27 22.5537 27.0064 20.6216 27.2662C18.7757 27.5143 17.9857 27.9432 17.4645 28.4645C16.9432 28.9857 16.5143 29.7757 16.2662 31.6216C16.0064 33.5537 16 36.144 16 40C16 43.8561 16.0064 46.4463 16.2662 48.3784C16.5143 50.2243 16.9432 51.0143 17.4645 51.5355C17.9857 52.0568 18.7757 52.4857 20.6216 52.7339C22.5537 52.9936 25.144 53 29 53C30.6569 53 32 54.3432 32 56C32 57.6569 30.6569 59 29 59L28.7919 59C25.198 59.0001 22.2012 59.0002 19.8221 58.6804C17.3109 58.3428 15.0437 57.6001 13.2218 55.7782C11.4 53.9563 10.6573 51.6891 10.3197 49.1779C9.9998 46.7988 9.99989 43.8019 10 40.208L10 40.208V39.7919L10 39.7919C9.99989 36.198 9.9998 33.2012 10.3197 30.8221C10.6573 28.3109 11.4 26.0437 13.2218 24.2218C15.0437 22.4 17.3109 21.6573 19.8221 21.3197C22.2012 20.9998 25.1982 20.9999 28.792 21Z" fill="url(#paint1_radial_169_2108)"/>
<path d="M59.3784 27.2662C57.4463 27.0064 54.8561 27 51 27C49.3432 27 48 25.6569 48 24C48 22.3432 49.3432 21 51 21L51.2081 21C54.802 20.9999 57.7988 20.9998 60.1779 21.3197C62.6891 21.6573 64.9563 22.4 66.7782 24.2218C68.6001 26.0437 69.3427 28.3109 69.6804 30.8221C70.0002 33.2011 70.0001 36.1979 70 39.7915V39.7917V40.2081V40.2082C70.0001 43.8019 70.0002 46.7989 69.6804 49.1779C69.3427 51.6891 68.6001 53.9563 66.7782 55.7782C64.9563 57.6001 62.6891 58.3428 60.1779 58.6804C57.7988 59.0002 54.8019 59.0001 51.208 59H50.7919C47.198 59.0001 44.2012 59.0002 41.8221 58.6804C39.3109 58.3428 37.0437 57.6001 35.2218 55.7782C33.4 53.9563 32.6573 51.6891 32.3197 49.1779C31.9998 46.7988 31.9999 43.8019 32 40.208L32 40C32 38.3432 33.3432 37 35 37C36.6569 37 38 38.3432 38 40C38 43.8561 38.0064 46.4463 38.2662 48.3784C38.5143 50.2243 38.9432 51.0143 39.4645 51.5355C39.9857 52.0568 40.7757 52.4857 42.6216 52.7339C44.5537 52.9936 47.144 53 51 53C54.8561 53 57.4463 52.9936 59.3784 52.7339C61.2243 52.4857 62.0143 52.0568 62.5355 51.5355C63.0568 51.0143 63.4857 50.2243 63.7339 48.3784C63.9936 46.4463 64 43.8561 64 40C64 36.144 63.9936 33.5537 63.7339 31.6216C63.4857 29.7757 63.0568 28.9857 62.5355 28.4645C62.0143 27.9432 61.2243 27.5143 59.3784 27.2662Z" fill="url(#paint2_radial_169_2108)"/>
<defs>
<radialGradient id="paint0_radial_169_2108" cx="0" cy="0" r="1" gradientUnits="userSpaceOnUse" gradientTransform="translate(103.582 66.0441) rotate(-155.477) scale(87.1185 62.3362)">
<stop stop-color="#C6B38A"/>
<stop offset="0.463601" stop-color="#F3C691"/>
<stop offset="1" stop-color="#B4703E"/>
</radialGradient>
<radialGradient id="paint1_radial_169_2108" cx="0" cy="0" r="1" gradientUnits="userSpaceOnUse" gradientTransform="translate(87.6865 52.371) rotate(-163.884) scale(61.8765 31.2665)">
<stop stop-color="#C6B38A"/>
<stop offset="0.463601" stop-color="#F3C691"/>
<stop offset="1" stop-color="#B4703E"/>
</radialGradient>
<radialGradient id="paint2_radial_169_2108" cx="0" cy="0" r="1" gradientUnits="userSpaceOnUse" gradientTransform="translate(87.6865 52.371) rotate(-163.884) scale(61.8765 31.2665)">
<stop stop-color="#C6B38A"/>
<stop offset="0.463601" stop-color="#F3C691"/>
<stop offset="1" stop-color="#B4703E"/>
</radialGradient>
</defs>
</svg>

<svg xmlns="http://www.w3.org/2000/svg" width="80" height="80" fill="none" xmlns:v="https://vecta.io/nano"><path opacity=".5" d="M40 80c-18.856 0-28.284 0-34.142-5.858S0 58.856 0 40 0 11.716 5.858 5.858 21.144 0 40 0s28.284 0 34.142 5.858S80 21.144 80 40s0 28.284-5.858 34.142S58.856 80 40 80z" fill="url(#A)"/><path d="M28.792 21h.416l8.97.32c2.511.338 4.778 1.08 6.6 2.902s2.565 4.089 2.902 6.6c.32 2.379.32 5.376.32 8.97V40a3 3 0 1 1-6 0l-.266-8.378c-.248-1.846-.677-2.636-1.198-3.157s-1.311-.95-3.157-1.198C35.446 27.006 32.856 27 29 27l-8.378.266c-1.846.248-2.636.677-3.157 1.198s-.95 1.311-1.198 3.157C16.006 33.554 16 36.144 16 40l.266 8.378c.248 1.846.677 2.636 1.198 3.157s1.311.95 3.157 1.198c1.932.26 4.522.266 8.378.266a3 3 0 1 1 0 6h-.208c-3.594 0-6.591 0-8.97-.32-2.511-.338-4.778-1.08-6.6-2.902s-2.565-4.089-2.902-6.6c-.32-2.379-.32-5.376-.32-8.97h0v-.416h0l.32-8.97c.338-2.511 1.08-4.778 2.902-6.6s4.089-2.565 6.6-2.902c2.379-.32 5.376-.32 8.97-.32z" fill="url(#B)"/><path d="M59.378 27.266C57.446 27.006 54.856 27 51 27a3 3 0 1 1 0-6h.208l8.97.32c2.511.338 4.778 1.08 6.6 2.902s2.564 4.089 2.902 6.6c.32 2.379.32 5.376.32 8.969h0v.416h0l-.32 8.97c-.338 2.511-1.08 4.778-2.902 6.6s-4.089 2.565-6.6 2.902c-2.379.32-5.376.32-8.97.32h-.416c-3.594 0-6.591 0-8.97-.32-2.511-.338-4.778-1.08-6.6-2.902s-2.565-4.089-2.902-6.6c-.32-2.379-.32-5.376-.32-8.97V40a3 3 0 1 1 6 0l.266 8.378c.248 1.846.677 2.636 1.198 3.157s1.311.95 3.157 1.198c1.932.26 4.522.266 8.378.266l8.378-.266c1.846-.248 2.636-.677 3.157-1.198s.95-1.311 1.198-3.157c.26-1.932.266-4.522.266-8.378l-.266-8.378c-.248-1.846-.677-2.636-1.198-3.157s-1.311-.95-3.157-1.198z" fill="url(#B)"/><defs><radialGradient id="A" cx="0" cy="0" r="1" gradientUnits="userSpaceOnUse" gradientTransform="translate(103.582 66.0441) rotate(-155.477) scale(87.1185 62.3362)"><stop stop-color="#c6b38a"/><stop offset=".464" stop-color="#f3c691"/><stop offset="1" stop-color="#b4703e"/></radialGradient><radialGradient id="B" cx="0" cy="0" r="1" gradientUnits="userSpaceOnUse" gradientTransform="translate(87.6865 52.371) rotate(-163.884) scale(61.8765 31.2665)"><stop stop-color="#c6b38a"/><stop offset=".464" stop-color="#f3c691"/><stop offset="1" stop-color="#b4703e"/></radialGradient></defs></svg>
